img/about/skill_js.svg

<svg height="36" viewBox="0 0 36 36" width="36" xmlns="http://www.w3.org/2000/svg"><g fill="none" fill-rule="evenodd"><g fill-rule="nonzero"><path d="m0 0h36v36h-36z" fill="#f7df1e"/><path d="m24.1828571 28.1251429c.7251429 1.184 1.6685715 2.0542857 3.3371429 2.0542857 1.4017143 0 2.2971429-.7005715 2.2971429-1.6685715 0-1.16-.92-1.5708571-2.4628572-2.2457142l-.8457143-.3628572c-2.4411428-1.04-4.0628571-2.3428571-4.0628571-5.0971428 0-2.5371429 1.9331428-4.4685715 4.9542857-4.4685715 2.1508571 0 3.6971429.7485715 4.8114286 2.7085715l-2.6342857 1.6914285c-.58-1.04-1.2057143-1.4497143-2.1771429-1.4497143-.9908571 0-1.6188571.6285715-1.6188571 1.4497143 0 1.0148572.6285714 1.4257143 2.08 2.0542857l.8457142.3622858c2.8742858 1.2325714 4.4971429 2.4891428 4.4971429 5.3142857 0 3.0457143-2.3925714 4.7142857-5.6057143 4.7142857-3.1417143 0-5.1714286-1.4971429-6.1645714-3.4594286zm-11.9502857.2931428c.5314286.9428572 1.0148572 1.74 2.1771429 1.74 1.1114286 0 1.8125714-.4348571 1.8125714-2.1257143v-11.5028571h3.3828572v11.5485714c0 3.5028572-2.0537143 5.0971429-5.0514286 5.0971429-2.7085714 0-4.2771429-1.4017143-5.07485716-3.09z" fill="#000"/></g><path d="m-2-2h40v40h-40z"/></g></svg>

<?xml version="1.0" encoding="UTF-8"?>
<svg width="36px" height="36px" viewBox="0 0 36 36" version="1.1" xmlns="http://www.w3.org/2000/svg" xmlns:xlink="http://www.w3.org/1999/xlink">
    <!-- Generator: Sketch 63.1 (92452) - https://sketch.com -->
    <title>skill_js</title>
    <desc>Created with Sketch.</desc>
    <g id="Portfolio" stroke="none" stroke-width="1" fill="none" fill-rule="evenodd">
        <g id="202003" transform="translate(-867.000000, -3123.000000)">
            <g id="skill_js" transform="translate(865.000000, 3121.000000)">
                <g id="Group" transform="translate(2.000000, 2.000000)" fill-rule="nonzero">
                    <rect id="Rectangle" fill="#F7DF1E" x="0" y="0" width="36" height="36"></rect>
                    <path d="M24.1828571,28.1251429 C24.908,29.3091429 25.8514286,30.1794286 27.52,30.1794286 C28.9217143,30.1794286 29.8171429,29.4788571 29.8171429,28.5108571 C29.8171429,27.3508571 28.8971429,26.94 27.3542857,26.2651429 L26.5085714,25.9022857 C24.0674286,24.8622857 22.4457143,23.5594286 22.4457143,20.8051429 C22.4457143,18.268 24.3788571,16.3365714 27.4,16.3365714 C29.5508571,16.3365714 31.0971429,17.0851429 32.2114286,19.0451429 L29.5771429,20.7365714 C28.9971429,19.6965714 28.3714286,19.2868571 27.4,19.2868571 C26.4091429,19.2868571 25.7811429,19.9154286 25.7811429,20.7365714 C25.7811429,21.7514286 26.4097143,22.1622857 27.8611429,22.7908571 L28.7068571,23.1531429 C31.5811429,24.3857143 33.204,25.6422857 33.204,28.4674286 C33.204,31.5131429 30.8114286,33.1817143 27.5982857,33.1817143 C24.4565714,33.1817143 22.4268571,31.6845714 21.4337143,29.7222857 L24.1828571,28.1251429 Z M12.2325714,28.4182857 C12.764,29.3611429 13.2474286,30.1582857 14.4097143,30.1582857 C15.5211429,30.1582857 16.2222857,29.7234286 16.2222857,28.0325714 L16.2222857,16.5297143 L19.6051429,16.5297143 L19.6051429,28.0782857 C19.6051429,31.5811429 17.5514286,33.1754286 14.5537143,33.1754286 C11.8451429,33.1754286 10.2765714,31.7737143 9.47885714,30.0854286 L12.2325714,28.4182857 Z" id="Shape" fill="#000000"></path>
                </g>
                <rect id="Rectangle-Copy-2" x="0" y="0" width="40" height="40"></rect>
            </g>
        </g>
    </g>
</svg>
